elementary-xfce/places/16/folder.svg

<?xml version="1.0" encoding="UTF-8" standalone="no"?>
<svg
   width="16px"
   height="16px"
   id="svg8860"
   version="1.1"
   xmlns:xlink="http://www.w3.org/1999/xlink"
   xmlns="http://www.w3.org/2000/svg"
   xmlns:svg="http://www.w3.org/2000/svg"
   xmlns:rdf="http://www.w3.org/1999/02/22-rdf-syntax-ns#"
   xmlns:cc="http://creativecommons.org/ns#"
   xmlns:dc="http://purl.org/dc/elements/1.1/">
  <defs
     id="defs8862">
    <linearGradient
       xlink:href="#linearGradient3454-2-5-0-3-8"
       id="linearGradient10270-0"
       gradientUnits="userSpaceOnUse"
       gradientTransform="matrix(0.89189031,0,0,0.94046961,3.12066,5.36987)"
       x1="11.667268"
       y1="0.66284746"
       x2="11.663198"
       y2="8.095994" />
    <linearGradient
       id="linearGradient3454-2-5-0-3-8">
      <stop
         offset="0"
         style="stop-color:#ffffff;stop-opacity:1"
         id="stop3456-4-9-38-1-9" />
      <stop
         offset="0.0097359"
         style="stop-color:#ffffff;stop-opacity:0.23529412"
         id="stop3458-39-80-3-5-6" />
      <stop
         offset="0.99001008"
         style="stop-color:#ffffff;stop-opacity:0.15686275"
         id="stop3460-7-0-2-4-4" />
      <stop
         offset="1"
         style="stop-color:#ffffff;stop-opacity:0.39215687"
         id="stop3462-0-9-8-7-8" />
    </linearGradient>
    <linearGradient
       xlink:href="#linearGradient6129-963-697-142-998-580-273-44-2-2-2"
       id="linearGradient10268-4"
       gradientUnits="userSpaceOnUse"
       gradientTransform="matrix(0.38156409,0,0,0.32896952,-18.26495,0.30552031)"
       x1="76.041"
       y1="49.372032"
       x2="76.041"
       y2="35.430561" />
    <linearGradient
       id="linearGradient6129-963-697-142-998-580-273-44-2-2-2">
      <stop
         id="stop2661-01-6-2-4"
         style="stop-color:#0a0a0a;stop-opacity:0.498"
         offset="0" />
      <stop
         id="stop2663-64-5-5-3"
         style="stop-color:#0a0a0a;stop-opacity:0"
         offset="1" />
    </linearGradient>
    <linearGradient
       xlink:href="#linearGradient4632-0-6-4-4"
       id="linearGradient10262-3"
       gradientUnits="userSpaceOnUse"
       gradientTransform="matrix(0.33320858,0,0,0.34136345,-17.075171,-0.6022476)"
       x1="84.30883"
       y1="16.110577"
       x2="84.30883"
       y2="42.923553" />
    <linearGradient
       id="linearGradient4632-0-6-4-4">
      <stop
         style="stop-color:#b4cee1;stop-opacity:1;"
         offset="0"
         id="stop4634-4-4-7-5" />
      <stop
         style="stop-color:#5d9fcd;stop-opacity:1;"
         offset="1"
         id="stop4636-3-1-5-4" />
    </linearGradient>
    <linearGradient
       id="linearGradient3104-8-8-97-4-6-11-5-5-4-4">
      <stop
         offset="0"
         style="stop-color:#000000;stop-opacity:0.32173914"
         id="stop3106-5-4-3-5-0-2-1-0-7-7" />
      <stop
         offset="1"
         style="stop-color:#000000;stop-opacity:0.27826086"
         id="stop3108-4-3-7-8-2-0-7-9-0-6" />
    </linearGradient>
    <linearGradient
       id="linearGradient4346">
      <stop
         id="stop4348"
         style="stop-color:#ffffff;stop-opacity:1"
         offset="0" />
      <stop
         id="stop4350"
         style="stop-color:#d8d8d8;stop-opacity:1"
         offset="1" />
    </linearGradient>
    <linearGradient
       y2="15.385052"
       x2="62.988873"
       y1="11.645091"
       x1="62.988873"
       gradientTransform="matrix(0.33333327,0,0,0.32971018,-17.44063,-0.64784268)"
       gradientUnits="userSpaceOnUse"
       id="linearGradient8858"
       xlink:href="#linearGradient4346" />
    <linearGradient
       xlink:href="#linearGradient3104-8-8-97-4-6-11-5-5-4-4"
       id="linearGradient3018"
       gradientUnits="userSpaceOnUse"
       gradientTransform="matrix(0.31070043,0,0,0.27489387,20.17717,-0.10316268)"
       x1="-51.786404"
       y1="53.514328"
       x2="-51.786404"
       y2="2.0612748" />
  </defs>
  <metadata
     id="metadata8865">
    <rdf:RDF>
      <cc:Work
         rdf:about="">
        <dc:format>image/svg+xml</dc:format>
        <dc:type
           rdf:resource="http://purl.org/dc/dcmitype/StillImage" />
      </cc:Work>
    </rdf:RDF>
  </metadata>
  <g
     id="layer1">
    <path
       style="color:#000000;display:inline;overflow:visible;visibility:visible;fill:url(#linearGradient8858);fill-opacity:1;fill-rule:nonzero;stroke:none;stroke-width:0.999922;marker:none;enable-background:accumulate"
       d="M 2,2 V 3 H 1 V 7 H 15 V 3 H 8 V 2 Z"
       id="rect4170-0" />
    <path
       style="color:#000000;font-style:normal;font-variant:normal;font-weight:normal;font-stretch:normal;font-size:medium;line-height:normal;font-family:Sans;-inkscape-font-specification:Sans;text-indent:0;text-align:start;text-decoration:none;text-decoration-line:none;letter-spacing:normal;word-spacing:normal;text-transform:none;writing-mode:lr-tb;direction:ltr;baseline-shift:baseline;text-anchor:start;display:inline;overflow:visible;visibility:visible;opacity:0.8;fill:url(#linearGradient3018);fill-opacity:1;stroke:none;stroke-width:1;marker:none;enable-background:accumulate"
       d="M 1.78125,1 C 1.3743986,1 1,1.3431486 1,1.75 V 2 H 0.78174579 C 0.37489441,2 0,2.3142812 0,2.7211326 V 4 H 1 V 3 H 2 V 2 h 6 v 1 h 7 v 1 h 1 V 2.71875 C 16,2.3118986 15.649118,2 15.242267,2 H 9 V 1.7454994 C 9,1.338648 8.6509312,1 8.2440798,1 Z"
       id="rect4170" />
    <path
       d="M 15.5,4.5 V 14.500011 L 0.5,14.5 V 4.500008 Z"
       id="rect3086"
       style="color:#000000;display:inline;overflow:visible;visibility:visible;fill:url(#linearGradient10262-3);fill-opacity:1;fill-rule:nonzero;stroke:none;stroke-width:1;marker:none;enable-background:accumulate" />
    <path
       d="M 0,4 H 16 V 15 H 0 Z"
       id="rect3086-1"
       style="color:#000000;display:inline;overflow:visible;visibility:visible;opacity:0.4;fill:url(#linearGradient10268-4);fill-opacity:1;fill-rule:nonzero;stroke:none;stroke-width:1;marker:none;enable-background:accumulate" />
    <path
       d="m 1.5,5.5 h 13 l -5.2e-5,8 H 1.5 Z"
       id="rect3086-9"
       style="color:#000000;display:inline;overflow:visible;visibility:visible;opacity:0.5;fill:none;stroke:url(#linearGradient10270-0);stroke-width:1;stroke-linecap:round;stroke-linejoin:miter;stroke-miterlimit:4;stroke-dasharray:none;stroke-dashoffset:0;stroke-opacity:1;marker:none;enable-background:accumulate" />
    <path
       style="color:#000000;font-style:normal;font-variant:normal;font-weight:normal;font-stretch:normal;font-size:medium;line-height:normal;font-family:Sans;-inkscape-font-specification:Sans;text-indent:0;text-align:start;text-decoration:none;text-decoration-line:none;letter-spacing:normal;word-spacing:normal;text-transform:none;writing-mode:lr-tb;direction:ltr;baseline-shift:baseline;text-anchor:start;display:inline;overflow:visible;visibility:visible;opacity:0.3;fill:#000000;fill-opacity:1;stroke:none;stroke-width:1;marker:none;enable-background:accumulate"
       d="m 0,4 v 10.5 c 2.7608953e-5,0.276131 0.22386906,0.499972 0.5,0.5 h 15 c 0.29621,0.0061 0.498325,-0.21597 0.5,-0.5 V 4 Z m 1,1 h 14 v 9 H 1 Z"
       id="rect3086-0" />
  </g>
</svg>

<?xml version="1.0" encoding="UTF-8" standalone="no"?>
<svg
   width="16px"
   height="16px"
   id="svg8860"
   version="1.1"
   xmlns:xlink="http://www.w3.org/1999/xlink"
   xmlns="http://www.w3.org/2000/svg"
   xmlns:svg="http://www.w3.org/2000/svg"
   xmlns:rdf="http://www.w3.org/1999/02/22-rdf-syntax-ns#"
   xmlns:cc="http://creativecommons.org/ns#"
   xmlns:dc="http://purl.org/dc/elements/1.1/">
  <defs
     id="defs8862">
    <linearGradient
       xlink:href="#linearGradient3454-2-5-0-3-8"
       id="linearGradient10270-0"
       gradientUnits="userSpaceOnUse"
       gradientTransform="matrix(0.89189031,0,0,0.94046961,3.12066,5.36987)"
       x1="11.350123"
       y1="0.66696572"
       x2="11.350123"
       y2="8.1721792" />
    <linearGradient
       id="linearGradient3454-2-5-0-3-8">
      <stop
         offset="0"
         style="stop-color:#ffffff;stop-opacity:1"
         id="stop3456-4-9-38-1-9" />
      <stop
         offset="0.0097359"
         style="stop-color:#ffffff;stop-opacity:0.23529412"
         id="stop3458-39-80-3-5-6" />
      <stop
         offset="0.99001008"
         style="stop-color:#ffffff;stop-opacity:0.15686275"
         id="stop3460-7-0-2-4-4" />
      <stop
         offset="1"
         style="stop-color:#ffffff;stop-opacity:0.39215687"
         id="stop3462-0-9-8-7-8" />
    </linearGradient>
    <linearGradient
       xlink:href="#linearGradient6129-963-697-142-998-580-273-44-2-2-2"
       id="linearGradient10268-4"
       gradientUnits="userSpaceOnUse"
       gradientTransform="matrix(0.38156409,0,0,0.32896952,-18.26495,0.30552031)"
       x1="76.041"
       y1="49.372032"
       x2="76.041"
       y2="35.430561" />
    <linearGradient
       id="linearGradient6129-963-697-142-998-580-273-44-2-2-2">
      <stop
         id="stop2661-01-6-2-4"
         style="stop-color:#0a0a0a;stop-opacity:0.498"
         offset="0" />
      <stop
         id="stop2663-64-5-5-3"
         style="stop-color:#0a0a0a;stop-opacity:0"
         offset="1" />
    </linearGradient>
    <linearGradient
       xlink:href="#linearGradient4632-0-6-4-4"
       id="linearGradient10262-3"
       gradientUnits="userSpaceOnUse"
       gradientTransform="matrix(0.33320858,0,0,0.34136345,-17.075171,-0.6022476)"
       x1="84.30883"
       y1="16.110577"
       x2="84.30883"
       y2="42.923553" />
    <linearGradient
       id="linearGradient4632-0-6-4-4">
      <stop
         style="stop-color:#b4cee1;stop-opacity:1;"
         offset="0"
         id="stop4634-4-4-7-5" />
      <stop
         style="stop-color:#5d9fcd;stop-opacity:1;"
         offset="1"
         id="stop4636-3-1-5-4" />
    </linearGradient>
    <linearGradient
       id="linearGradient3104-8-8-97-4-6-11-5-5-4-4">
      <stop
         offset="0"
         style="stop-color:#000000;stop-opacity:0.32173914"
         id="stop3106-5-4-3-5-0-2-1-0-7-7" />
      <stop
         offset="1"
         style="stop-color:#000000;stop-opacity:0.27826086"
         id="stop3108-4-3-7-8-2-0-7-9-0-6" />
    </linearGradient>
    <linearGradient
       id="linearGradient4346">
      <stop
         id="stop4348"
         style="stop-color:#ffffff;stop-opacity:1"
         offset="0" />
      <stop
         id="stop4350"
         style="stop-color:#d8d8d8;stop-opacity:1"
         offset="1" />
    </linearGradient>
    <linearGradient
       y2="15.385052"
       x2="62.988873"
       y1="11.645091"
       x1="62.988873"
       gradientTransform="matrix(0.33333327,0,0,0.32971018,-17.44063,-0.64784268)"
       gradientUnits="userSpaceOnUse"
       id="linearGradient8858"
       xlink:href="#linearGradient4346" />
    <linearGradient
       xlink:href="#linearGradient3104-8-8-97-4-6-11-5-5-4-4"
       id="linearGradient3018"
       gradientUnits="userSpaceOnUse"
       gradientTransform="matrix(0.31070043,0,0,0.27489387,20.17717,-0.10316268)"
       x1="-51.786404"
       y1="53.514328"
       x2="-51.786404"
       y2="2.0612748" />
  </defs>
  <metadata
     id="metadata8865">
    <rdf:RDF>
      <cc:Work
         rdf:about="">
        <dc:format>image/svg+xml</dc:format>
        <dc:type
           rdf:resource="http://purl.org/dc/dcmitype/StillImage" />
      </cc:Work>
    </rdf:RDF>
  </metadata>
  <g
     id="layer1">
    <path
       style="color:#000000;display:inline;overflow:visible;visibility:visible;fill:url(#linearGradient8858);fill-opacity:1;fill-rule:nonzero;stroke:none;stroke-width:0.999922;marker:none;enable-background:accumulate"
       d="M 2,2 V 3 H 1 V 7 H 15 V 3 H 8 V 2 Z"
       id="rect4170-0" />
    <path
       style="color:#000000;font-style:normal;font-variant:normal;font-weight:normal;font-stretch:normal;font-size:medium;line-height:normal;font-family:Sans;-inkscape-font-specification:Sans;text-indent:0;text-align:start;text-decoration:none;text-decoration-line:none;letter-spacing:normal;word-spacing:normal;text-transform:none;writing-mode:lr-tb;direction:ltr;baseline-shift:baseline;text-anchor:start;display:inline;overflow:visible;visibility:visible;opacity:0.8;fill:url(#linearGradient3018);fill-opacity:1;stroke:none;stroke-width:1;marker:none;enable-background:accumulate"
       d="M 1.78125,1 C 1.3743986,1 1,1.3431486 1,1.75 V 2 H 0.78174579 C 0.37489441,2 0,2.3142812 0,2.7211326 V 4 H 1 V 3 H 2 V 2 H 7.9940798 L 8,2.9952242 C 8,2.9952242 12.666688,3 15,3 L 15.0012,3.9992056 16.001687,4 V 2.71875 C 16.001687,2.3118986 15.649118,2 15.242267,2 H 9 V 1.7454994 C 9,1.338648 8.6509312,1 8.2440798,1 Z"
       id="rect4170" />
    <path
       d="M 15.5,4.5 V 14.500011 L 0.5,14.5 V 4.500008 Z"
       id="rect3086"
       style="color:#000000;display:inline;overflow:visible;visibility:visible;fill:url(#linearGradient10262-3);fill-opacity:1;fill-rule:nonzero;stroke:none;stroke-width:1;marker:none;enable-background:accumulate" />
    <path
       d="M 0,4 H 16 V 15 C 16,15 0,15 0,14.9962 Z"
       id="rect3086-1"
       style="color:#000000;display:inline;overflow:visible;visibility:visible;opacity:0.4;fill:url(#linearGradient10268-4);fill-opacity:1;fill-rule:nonzero;stroke:none;stroke-width:1;marker:none;enable-background:accumulate" />
    <path
       d="m 1.5030001,5.4657689 12.9841779,0.018254 0.01277,8.0150501 -13.0007964,-0.0048 z"
       id="rect3086-9"
       style="color:#000000;display:inline;overflow:visible;visibility:visible;opacity:0.5;fill:none;stroke:url(#linearGradient10270-0);stroke-width:1;stroke-linecap:round;stroke-linejoin:miter;stroke-miterlimit:4;stroke-dasharray:none;stroke-dashoffset:0;stroke-opacity:1;marker:none;enable-background:accumulate" />
    <path
       style="color:#000000;font-style:normal;font-variant:normal;font-weight:normal;font-stretch:normal;font-size:medium;line-height:normal;font-family:Sans;-inkscape-font-specification:Sans;text-indent:0;text-align:start;text-decoration:none;text-decoration-line:none;letter-spacing:normal;word-spacing:normal;text-transform:none;writing-mode:lr-tb;direction:ltr;baseline-shift:baseline;text-anchor:start;display:inline;overflow:visible;visibility:visible;opacity:0.3;fill:#000000;fill-opacity:1;stroke:none;stroke-width:1;marker:none;enable-background:accumulate"
       d="M -0.00158143,3.9961224 0,14.46875 C 2.7608953e-5,14.744881 0.22386906,14.999972 0.5,15 h 15 c 0.29621,0.0061 0.498325,-0.275071 0.5,-0.559101 V 4 Z M 1,5 h 14 v 9 H 1 Z"
       id="rect3086-0" />
  </g>
</svg>
